static/svgs/creditcard.svg

<svg width="24" height="24" xmlns="http://www.w3.org/2000/svg" fill-rule="evenodd" clip-rule="evenodd"><path d="M22 3c.53 0 1.039.211 1.414.586s.586.884.586 1.414v14c0 .53-.211 1.039-.586 1.414s-.884.586-1.414.586h-20c-.53 0-1.039-.211-1.414-.586s-.586-.884-.586-1.414v-14c0-.53.211-1.039.586-1.414s.884-.586 1.414-.586h20zm1 8h-22v8c0 .552.448 1 1 1h20c.552 0 1-.448 1-1v-8zm-15 5v1h-5v-1h5zm13-2v1h-3v-1h3zm-10 0v1h-8v-1h8zm-10-6v2h22v-2h-22zm22-1v-2c0-.552-.448-1-1-1h-20c-.552 0-1 .448-1 1v2h22z"/></svg>

<?xml version="1.0" encoding="utf-8"?>
<!-- Generator: Adobe Illustrator 24.1.2, SVG Export Plug-In . SVG Version: 6.00 Build 0)  -->
<svg version="1.1" id="Layer_1" xmlns="http://www.w3.org/2000/svg" xmlns:xlink="http://www.w3.org/1999/xlink" x="0px" y="0px"
	 viewBox="0 0 31.8 26.5" style="enable-background:new 0 0 31.8 26.5;" xml:space="preserve">
<style type="text/css">
	.st0{fill-rule:evenodd;clip-rule:evenodd;}
	.st1{fill:#FFFFFF;}
</style>
<path class="st0" d="M22,3c0.5,0,1,0.2,1.4,0.6S24,4.5,24,5v14c0,0.5-0.2,1-0.6,1.4S22.5,21,22,21H2c-0.5,0-1-0.2-1.4-0.6
	S0,19.5,0,19V5c0-0.5,0.2-1,0.6-1.4S1.5,3,2,3H22z M23,11H1v8c0,0.6,0.4,1,1,1h20c0.6,0,1-0.4,1-1V11z M8,16v1H3v-1H8z M21,14v1h-3
	v-1H21z M11,14v1H3v-1H11z M1,8v2h22V8H1z M23,7V5c0-0.6-0.4-1-1-1H2C1.4,4,1,4.4,1,5v2H23z"/>
<rect x="15.6" y="17" class="st1" width="8.9" height="5.3"/>
<rect x="21.7" y="12.1" class="st1" width="8.9" height="5.3"/>
<ellipse class="st1" cx="26" cy="12.3" rx="5.9" ry="2"/>
<path id="Icon_awesome-coins" d="M16.2,23.2v1.3c0,1.1,2.6,2,5.9,2s5.9-0.9,5.9-2v-1.3c-1.3,0.9-3.6,1.3-5.9,1.3
	S17.4,24.1,16.2,23.2z M26,14.7c3.2,0,5.9-0.9,5.9-2s-2.6-2-5.9-2s-5.9,0.9-5.9,2S22.7,14.7,26,14.7z M16.2,20v1.6
	c0,1.1,2.6,2,5.9,2s5.9-0.9,5.9-2V20c-1.3,1-3.6,1.6-5.9,1.6S17.4,21,16.2,20z M28.9,20.3c1.8-0.3,2.9-1,2.9-1.7v-1.3
	c-0.9,0.6-1.9,0.9-2.9,1.1V20.3z M22,15.7c-3.2,0-5.9,1.1-5.9,2.4c0,1.4,2.6,2.4,5.9,2.4s5.9-1.1,5.9-2.4
	C27.9,16.8,25.3,15.7,22,15.7z M28.8,17.4c1.8-0.3,3.1-1,3.1-1.7v-1.3c-1.1,0.8-3,1.2-4.9,1.3C27.7,16,28.4,16.6,28.8,17.4z"/>
</svg>
